src/lib/packages/icons/src/assets/line/thermometer.svg

<svg width="24" height="24" viewBox="0 0 24 24" fill="none" xmlns="http://www.w3.org/2000/svg">
<path d="M20.665 3.33401C19.267 1.93601 16.8281 1.93701 15.4301 3.33401L8.99304 9.77005C8.34104 10.422 7.84303 11.2291 7.55103 12.1031L7.28699 12.896C7.06699 13.551 6.69403 14.1561 6.20703 14.6441L2.90198 17.948C2.48098 18.368 2.25 18.927 2.25 19.523C2.25 20.118 2.48098 20.677 2.90198 21.097C3.32198 21.517 3.88095 21.7491 4.47595 21.7491C5.06995 21.7491 5.62905 21.518 6.05005 21.097L9.354 17.793C9.843 17.304 10.4481 16.9309 11.1021 16.7129L11.896 16.448C12.77 16.156 13.577 15.6571 14.229 15.0061L20.665 8.5701C21.364 7.8711 21.75 6.94093 21.75 5.95193C21.75 4.96393 21.364 4.03401 20.665 3.33401ZM4.98999 20.0371C4.71399 20.3131 4.23701 20.3121 3.96301 20.0371C3.82501 19.9001 3.75 19.718 3.75 19.524C3.75 19.33 3.82501 19.148 3.96301 19.01L4.95605 18.0171L5.98303 19.044L4.98999 20.0371ZM19.604 7.51004L13.168 13.9461C12.68 14.4341 12.075 14.8079 11.421 15.0259L10.6281 15.2901C9.75405 15.5811 8.94597 16.08 8.29297 16.732L7.04297 17.982L6.01599 16.9551L7.26697 15.7041C7.91797 15.0531 8.41598 14.2461 8.70898 13.3711L8.974 12.5769C9.192 11.9219 9.56498 11.3181 10.053 10.8301L16.49 4.39407C16.906 3.97807 17.459 3.74905 18.048 3.74905C18.636 3.74905 19.189 3.97807 19.605 4.39407C20.021 4.81007 20.251 5.36293 20.251 5.95193C20.251 6.54093 20.021 7.09404 19.604 7.51004ZM15.53 8.47C15.823 8.763 15.823 9.23803 15.53 9.53103L13.53 11.531C13.384 11.677 13.192 11.751 13 11.751C12.808 11.751 12.616 11.678 12.47 11.531C12.177 11.238 12.177 10.763 12.47 10.47L14.47 8.47C14.763 8.177 15.237 8.177 15.53 8.47ZM18 7.00003C18 7.55203 17.552 8.00003 17 8.00003C16.448 8.00003 16 7.55203 16 7.00003C16 6.44803 16.448 6.00003 17 6.00003C17.552 6.00003 18 6.44803 18 7.00003Z" fill="currentColor"/>
</svg>

<svg xmlns="http://www.w3.org/2000/svg" width="24" height="24" fill="none"><path fill="currentColor" d="M20.665 3.334c-1.398-1.398-3.837-1.397-5.235 0L8.993 9.77a6.008 6.008 0 0 0-1.442 2.333l-.264.793a4.528 4.528 0 0 1-1.08 1.748l-3.305 3.304c-.421.42-.652.979-.652 1.575 0 .595.231 1.154.652 1.574.42.42.979.652 1.574.652.594 0 1.153-.231 1.574-.652l3.304-3.304a4.496 4.496 0 0 1 1.748-1.08l.794-.265a6.02 6.02 0 0 0 2.333-1.442l6.436-6.436a3.68 3.68 0 0 0 1.085-2.618c0-.988-.386-1.918-1.085-2.618ZM4.99 20.037a.741.741 0 0 1-1.027 0 .717.717 0 0 1-.213-.513.72.72 0 0 1 .213-.514l.993-.993 1.027 1.027-.993.993ZM19.604 7.51l-6.436 6.436a4.495 4.495 0 0 1-1.747 1.08l-.793.264a6.01 6.01 0 0 0-2.335 1.442l-1.25 1.25-1.027-1.027 1.251-1.25a6.017 6.017 0 0 0 1.442-2.334l.265-.794a4.485 4.485 0 0 1 1.079-1.747l6.437-6.436a2.188 2.188 0 0 1 1.558-.645c.588 0 1.141.23 1.557.645.416.416.646.969.646 1.558 0 .589-.23 1.142-.647 1.558Zm-4.074.96a.75.75 0 0 1 0 1.061l-2 2a.748.748 0 0 1-1.06 0 .75.75 0 0 1 0-1.061l2-2a.749.749 0 0 1 1.06 0ZM18 7a1 1 0 1 1-2 0 1 1 0 0 1 2 0Z"/></svg>
